X:1
T:Title
%%score { ( 1 4 ) | ( 2 3 ) }
L:1/8
Q:1/4=90
M:6/8
K:G
V:1 treble nm="Grand Piano"
V:4 treble 
V:2 bass 
V:3 bass 
V:1
 [B,G][B,G][B,G] [B,F]2 [B,D] | EEG D3 | [DB][DB][DB] [^CB]2 [CE] | [CA][CB][CA] A3 | BBB d2 G | %5
w: J.~Lincoln~Hall * * * *|||||
 GAB c3 | GFG D2 [GB] | .[Fd]2 [CFA] [B,G]3 | [B,D]3 [_B,^C]2 [=B,D] | [CE]2 [DF] [EG]2 [^DA] | %10
w: |||||
 [DB]3 [^C_B]2 [D=B] | [DGBd]6 | [DB]3 [^C_B]2 [D=B] | [Ec]2 [DB] [CA]2 [B,G] | [CE]3 [EG]2 [CE] | %15
w: |||||
 [B,D]6 | B3 ._B3 | .c3 ._B3 | e3 .B3 | G3 .G3 | B3 .e3 | .B3 .B3 | G6 |] %23
w: ||||||||
V:2
 [G,,G,][G,,G,][G,,G,] [G,,G,]2 [G,,G,] | [C,G,C][C,G,C][E,G,C] [G,B,]3 | %2
 [G,,G,][G,,G,][G,,G,] [A,,G,]2 [A,,G,] | [A,,G,][A,,G,][A,,G,] [D,F,C]3 | %4
 [G,DG][G,DG][G,DG] [G,B,G]2 [G,B,D] | [=F,B,D][F,B,D][F,B,D] [E,G,C]3 | %6
 [^D,_B,^C][D,B,C][D,B,C] [=D,=B,]2 [D,D] | z[K:treble] c[K:bass]D, G,3 | A,,G,G, G,,G,G, | %9
 C,G,G, C,G,G, | G,,G,G, G,,G,G, | G,,G,G, G,,G,G, | G,,G,G, G,,G,G, | G,,G,G, G,,G,G, | %14
 C,G,G, C,G,G, | G,,G,G, G,,G,G, | [B,,F,A,][B,,F,][B,,F,] [B,,F,A,][B,,F,][B,,F,A,] | %17
 [B,,F,A,][B,,F,][B,,F,A,] [B,,F,A,][B,,F,][B,,F,A,] | %18
 [E,G,B,E][E,G,B,][E,G,B,] [E,G,B,E][E,G,B,][E,G,B,E] | %19
 [E,G,B,E][E,G,B,][E,G,B,] [^D,_B,^C][D,B,][D,B,] | %20
 [D,G,B,][D,G,B,][D,G,B,] [D,G,B,][D,G,B,][D,G,B,] | D,D,D, D,D,D, | G,,G,,C, G,,3 |] %23
V:3
 x6 | x6 | x6 | x6 | x6 | x6 | x6 | .[D,A,]3[K:treble][K:bass] z3 | x6 | x6 | x6 | x6 | x6 | x6 | %14
 x6 | x6 | x6 | x6 | x6 | x6 | x6 | x6 | x6 |] %23
V:4
 x6 | x6 | x6 | x6 | x6 | x6 | x6 | x6 | x6 | x6 | x6 | x6 | x6 | x6 | x6 | x6 | %16
 ^D[A,D][A,D] D[A,D][D=B] | ^D[A,D][DB] D[A,D][D=B] | z EE z EA | z EE z ^C[CA] | %20
 [DG][DG][DG] [GB][GB][GBd] | [DG][DG][B,DG] [CDF][CDF][CDFA] | [G,B,D][G,B,D][G,CE] [G,B,D]3 |] %23

